polaris-icons/icons/new-icons/UpdateInventoryMajor.svg

<svg width="20" height="20" viewBox="0 0 20 20" fill="none" xmlns="http://www.w3.org/2000/svg">
<path d="M11.2652 2.95192C10.5016 2.4327 9.49836 2.43269 8.7348 2.95192L4.64134 5.73547C3.61459 6.43366 3 7.5948 3 8.83645V16.2486C3 16.6628 3.33579 16.9986 3.75 16.9986C4.16421 16.9986 4.5 16.6628 4.5 16.2486V8.83645C4.5 8.09146 4.86875 7.39477 5.4848 6.97586L9.57827 4.1923C9.83279 4.01923 10.1672 4.01923 10.4217 4.19231L14.5152 6.97586C15.1312 7.39477 15.5 8.09146 15.5 8.83645V16.2486C15.5 16.6628 15.8358 16.9986 16.25 16.9986C16.6642 16.9986 17 16.6628 17 16.2486V8.83645C17 7.5948 16.3854 6.43366 15.3587 5.73547L11.2652 2.95192Z" fill="#4A4A4A"/>
<path d="M13.2803 10.2794C13.5732 9.98646 13.5732 9.51159 13.2803 9.21869C12.9874 8.9258 12.5126 8.9258 12.2197 9.21869L9.25 12.1884L8.03033 10.9687C7.73744 10.6758 7.26256 10.6758 6.96967 10.9687C6.67678 11.2616 6.67678 11.7365 6.96967 12.0294L8.71967 13.7794C9.01256 14.0722 9.48744 14.0722 9.78033 13.7794L13.2803 10.2794Z" fill="#4A4A4A"/>
</svg>

<svg viewBox="0 0 20 20" xmlns="http://www.w3.org/2000/svg"><path d="M11.265 2.952a2.25 2.25 0 0 0-2.53 0l-4.094 2.783a3.75 3.75 0 0 0-1.641 3.101v7.413a.75.75 0 0 0 1.5 0v-7.413c0-.745.369-1.441.985-1.86l4.093-2.784a.75.75 0 0 1 .844 0l4.093 2.784a2.25 2.25 0 0 1 .985 1.86v7.413a.75.75 0 0 0 1.5 0v-7.413a3.75 3.75 0 0 0-1.641-3.1l-4.094-2.784Z" fill="#5C5F62"/><path d="M13.28 10.28a.75.75 0 0 0-1.06-1.061l-2.97 2.97-1.22-1.22a.75.75 0 1 0-1.06 1.06l1.75 1.75a.75.75 0 0 0 1.06 0l3.5-3.5Z" fill="#5C5F62"/></svg>
